X:1
T:Music and Love
T:William James Kirkpatrick
T:Music and Love
T:Public Domain
T:Public Domain
T:Public Domain
C:William James Kirkpatrick
Z:Public Domain
%%score 1 ( 2 3 )
L:1/8
M:4/4
K:C
V:1 treble 
V:2 bass 
V:3 bass 
V:1
 (3[EG][FA][FB] | [Ec]2 [EG]2 [CE]2 (3[EG][EG][EG] | [FB]2 [FA]2 [CD]4 | %3
w: 1.~Ten- der- ly,|soft and clear mu- sic and|love we hear,|
w: 2.~O- ver the|morn- ing land, o- ver its|gold- en strand,|
w: 3.~Tell us, ye|sis- ters fair, wear- ing your|gar- lands rare,|
 [B,D]>[CE] [DF]>[EG] [FB]2 [FA]2 | [EG]>[FA] [EG]>[DF] [CE]>[DF] (3[EG][FA][FB] | %5
w: In our Sab- bath dwell- ing,|songs of rap- ture swell- ing. Gent- ly their|
w: Oft they roam de- light- ed,|hand in hand u- nit- ed, O- ver the|
w: Rose and li- ly twin- ing,|all their charms com- bin- ing, Tell us of|
 [Ec]2 [EG]2 [CE]2 (3[EG][EG][EG] | [FB]2 [FA]2 [CD]4 | [B,D]>[CE] [DF]>[EG] [FA]2 [FB]2 | %8
w: wings they blend, sweet- ly their|voic- es blend,|Songs of ho- ly rap- ture|
w: land of flowers, o- ver its|ver- nal bowers,|Love and mu- sic roam u-|
w: Him whose eye watch- eth be-|yond the sky,|O’er our path, in beau- ty|
 [Fd]4 [Ec]4 ||"^Refrain" [Fc]2 [FA]>[FB] [Fc]2 [FA]2 | [Ac]>[Ac] [GB]>[FA] [EG]4 | %11
w: swell- ing;|List to their car- ol,|joy- ful now they say,|
w: nit- ed.|Now, on their pin- ions,|fair and snow- y white,|
w: shin- ing;|Still they are sing- ing,|hear their tune- ful lay,|
 [FA]2 [B,D]>[B,D] [FA]2 [B,D]2 | [FA]>[FA] [EG]>[DF] [CE]4 | [EG]2 [EG]>[EG] [Ec]2 [EG]2 | %14
w: Come to the Sav- ior,|glad- ly haste a- way,|Come to the ban- quet|
w: Laved in a fount- ain,|spark- ling, pure and bright,|Come as an ar- row|
w: Come to the Sav- ior,|trust Him while you may,|Come to the ban- quet|
 [FA]>[GB] [Ac]>[_Ad] [Ge]4 | [^Ge]2 [Ge]>[Ge] [Ec]2 [EA]2 | [^Fd-]4 [=Fd]2 (3[FG][FA][FB] |] %17
w: wait- ing you to- day,|Wait- ing for one and|all. Ten- der- ly, *|
w: from the vales of light,|Com- fort they bring to|all. Ten- der- ly, *|
w: wait- ing you to- day,|Wait- ing for one and|all. Ten- der- ly, *|
V:2
 (3[C,G,][C,G,][C,G,] | [C,G,]2 [C,C]2 [C,G,]2 (3[C,C][C,C][C,C] | [F,C]2 [F,C]2 [F,A,]4 | %3
 G,>G, G,>G, [G,D]2 [G,B,]2 | [C,C]>[C,C] [C,C]>[C,G,] [C,G,]>[C,G,] (3[C,C][C,C][C,G,] | %5
 [C,G,]2 [C,C]2 [C,G,]2 (3[C,C][C,C][C,C] | [F,C]2 [F,C]2 [F,A,]4 | G,>G, G,>G, G,2 [G,D]2 | %8
 [G,B,]4 [C,G,]4 || [F,A,]2 [F,C]>[F,C] [F,A,]2 [F,C]2 | [F,C]>[F,C] [F,C]>[F,C] [C,C]4 | %11
 [G,,G,B,]2 [G,,G,]>[G,,G,] [G,,G,B,]2 [G,,G,]2 | [G,,G,B,]>[G,,G,B,] [G,,G,]>[G,,G,] [C,G,]4 | %13
 [C,C]2 [C,C]>[C,C] [C,G,]2 [C,C]2 | [F,C]>[F,C] [F,C]>[F,C] [C,C]4 | %15
 [E,B,]2 [E,B,]>[E,B,] [A,C]2 [A,C]2 | [D,C]4 [G,B,]2 (3[G,B,][G,C][G,D] |] %17
V:3
 x2 | x8 | x8 | G,>G, G,>G, x4 | x8 | x8 | x8 | G,>G, G,>G, G,2 x2 | x8 || x8 | x8 | x8 | x8 | x8 | %14
 x8 | x8 | x8 |] %17

